X: 1541
T: Ol Kadar Olmuş Rûhun...
C: Ahmet Avni Konuk
O: Turkey
F: http://compmusic.upf.edu/node/140
N: arazbar--kupe--duyek--ol_kadar--ahmet_avni_konuk
N: makam= arazbar
N: form= kupe
N: usul= duyek = 8/4
M: 8/4
L: 1/16
K: C _2/4B _2/4e  
Q: 1/4=57
%%MIDI tuningsystem comma53
z4 f8 g4 g8 a2_ba g4  | z4 g2c'2 _b4 b2a2 a2g4a2 g^3/4f_1/4e^3/4d e4  | 
w:  Ol  ka dar  ol  |  muş  *  *  rû *  hun  *  *  sâf_  | 
z4 d2e2 f2g2 f2e2 a2g4fe gfed c4  | \
w:  ü  *  *  *  lâ *  tîf  *  *  *  ey   | 
z4 d2=e2 f4 e2d2 d2c2 B2dc c6z2  | 
w:  meh *  *  li *  ka    | 
z4 g2g2 g4 g2a2 a2g2 f2=e2 d4 a4  | \
w:  Ma *  *  ha *  sal  *  *  *  reng_  | 
a3g g3f f3=e e2ed z2d2 d2_2/4e2 g^3/4fed {=e}dcBd  | 
w:  i  *  *  *  *  *  A *  *  raz *  *  bâr_  | 
A2c2 B2c2 B4 A4 z2g4a2 a2g2 f2=e2  | \
w:  *  *  ı  *  *  gi rân  *  ol  | 
d4 B2c2 B4 A4 A2c4BA A6z2  | 
w:  *  muş  *  sa *  na    | 
|


